svg/piano.svg

<svg xmlns="http://www.w3.org/2000/svg" viewBox="0 0 24 24"><path d="M4 3h16a2 2 0 0 1 2 2v14a2 2 0 0 1-2 2H4a2 2 0 0 1-2-2V5a2 2 0 0 1 2-2m0 2v14h4v-6H6.75V5zm5 14h6v-6h-1.25V5h-3.5v8H9zm7 0h4V5h-2.75v8H16z"/></svg>

<?xml version="1.0" encoding="UTF-8"?><!DOCTYPE svg PUBLIC "-//W3C//DTD SVG 1.1//EN" "http://www.w3.org/Graphics/SVG/1.1/DTD/svg11.dtd"><svg xmlns="http://www.w3.org/2000/svg" xmlns:xlink="http://www.w3.org/1999/xlink" version="1.1" id="mdi-piano" width="24" height="24" viewBox="0 0 24 24"><path d="M4,3H20A2,2 0 0,1 22,5V19A2,2 0 0,1 20,21H4A2,2 0 0,1 2,19V5A2,2 0 0,1 4,3M4,5V19H8V13H6.75V5H4M9,19H15V13H13.75V5H10.25V13H9V19M16,19H20V5H17.25V13H16V19Z" /></svg>
